dist/img/svg/graf.svg

<svg width="33" height="30" viewBox="0 0 33 30" fill="none" xmlns="http://www.w3.org/2000/svg">
<path d="M28.0156 0.0390625C26.9707 0.0390625 25.916 0.458985 25.125 1.25L9.26562 16.875L8.48438 17.6172C7.54688 17.793 6.65332 18.252 5.94531 19.0234C4.90527 20.1611 4.7002 21.5527 4.30469 23.0469C3.90918 24.541 3.40625 26.2061 2.19531 28.0469L0.945312 30H3.25C8.14258 30 11.3701 27.6611 13.0156 26.0156L13.0547 25.9766C13.8066 25.2051 14.2266 24.2334 14.3828 23.2422L15.0078 22.6562L30.8672 7.03125V6.99219C32.4492 5.41016 32.4492 2.83203 30.8672 1.25C30.0762 0.458985 29.0605 0.0390625 28.0156 0.0390625ZM28.0156 2.5C28.4062 2.5 28.7773 2.67578 29.1094 3.00781C29.7783 3.67676 29.7783 4.56543 29.1094 5.23438L17.8203 16.4062L15.5547 14.1406L26.8828 3.00781C27.2148 2.67578 27.625 2.5 28.0156 2.5ZM13.7578 15.8984L16.0234 18.1641L14.1484 20L11.8828 17.7344L13.7578 15.8984ZM9.46094 20.0391C10.0908 20.0586 10.7744 20.3027 11.2969 20.7812C12.2686 21.6699 12.293 23.2227 11.2578 24.2578C10.1738 25.3418 8.25 26.7383 5.4375 27.2656C6.03809 25.9521 6.45801 24.7266 6.72656 23.7109C7.1416 22.1436 7.44922 21.0693 7.78125 20.7031C8.21582 20.2295 8.83106 20.0195 9.46094 20.0391Z" fill="white"/>
</svg>

<svg width="33" height="30" viewBox="0 0 33 30" fill="none" xmlns="http://www.w3.org/2000/svg"><path d="M28.016.04a4.11 4.11 0 00-2.891 1.21L9.265 16.875l-.78.742a4.558 4.558 0 00-2.54 1.406c-1.04 1.138-1.245 2.53-1.64 4.024-.396 1.494-.899 3.16-2.11 5L.945 30H3.25c4.893 0 8.12-2.339 9.766-3.984l.039-.04c.752-.77 1.172-1.743 1.328-2.734l.625-.586 15.86-15.625v-.039a4.067 4.067 0 000-5.742C30.075.459 29.06.04 28.015.04zm0 2.46c.39 0 .761.176 1.093.508.67.669.67 1.557 0 2.226L17.82 16.406l-2.265-2.265L26.883 3.008c.332-.332.742-.508 1.133-.508zM13.758 15.898l2.265 2.266L14.148 20l-2.265-2.266 1.875-1.836zM9.46 20.04c.63.02 1.313.264 1.836.742.972.889.996 2.442-.04 3.477-1.083 1.084-3.007 2.48-5.82 3.008a22.53 22.53 0 001.29-3.555c.415-1.567.722-2.642 1.054-3.008.435-.473 1.05-.683 1.68-.664z" fill="#fff"/></svg>
